X:1
T:Gates of the Beautiful
T:William Marion Weekley
T:Gates of the Beautiful
T:Public Domain
T:Public Domain
C:William Marion Weekley
Z:Public Domain
%%score ( 1 2 ) ( 3 4 )
L:1/8
M:6/8
K:Eb
V:1 treble 
V:2 treble 
V:3 bass 
V:4 bass 
V:1
 [EB][EB][EB] [EB][E=A][EB] | [EB][EB][EG] [B,E]3 | [DF][DF][DF] [EG][DF][B,D] | %3
w: 1.~Gates of the beau- ti- ful,|gold- en and bright,|Guard- ing that ci- ty of|
w: 2.~Gates of the beau- ti- ful,|loft- y and grand,|Swung by the touch of some|
w: 3.~Gates of the beau- ti- ful,|gates of pure gold,|How can I pic- ture your|
 [B,E]E[EG] [EB]2 z | [Ec][Ec][Ec] [Ee][Ed][Ec] | [EB][EB][EG] [EB]2 z | [EB][Ec][EB] [EB][EG]E | %7
w: splen- dor and light;|I be- hold thee, in dis-|tance and dream, Flash|in the sun- light of heav-|
w: bright an- gel hand;|form the por- tals there floats|a sweet song, Waked|by the lips of the pu-|
w: glo- ries un- told?|ger- ly yearn- ing my spir-|it doth wait Till|I shall come to the beau-|
 [DF][DF][DG] [B,E]2 z ||"^Refrain" [EB]2 [EB] [EB]2 [EG] | ([EB]3 [Ge]3) | %10
w: ly gleam. Gates a-|jar for me, beau-|ti- *|
w: fied throng. * *|||
w: ful gate. * *|||
 [Ge]>[Bd][Ac] [GB]2 [Ec] | [EB]2 [EG] [DF]3 | [B,E]>[B,E][B,E] E2 [DF] | [EG]2 [EB] (c e2) | %14
w: ful gates a- jar for|me; Ci- ty|of gold with joys un-|Beau- ti- ful *|
w: ||||
w: ||||
 [EB]>[Ec][EB] [EB]2 [EG] | [DF]2 [DG] [B,E]3 |] %16
w: a- jar for me. *||
w: ||
w: ||
V:2
 x6 | x6 | x6 | x E x4 | x6 | x6 | x5 E | x6 || x6 | x6 | x6 | x6 | x3 E2 x | x3 E3 | x6 | x6 |] %16
w: |||Oft|||en-||||||told,|gates|||
w: |||Down|||ri-||||||||||
w: |||Ea-|||ti-||||||||||
V:3
 [E,G,][E,G,][E,G,] [E,G,][E,^F,][E,G,] | [E,G,][E,G,][E,B,] [E,G,]3 | %2
w: ~ ~ ~ ~ ~ ~|~ ~ ~ ~|
 [B,,B,][B,,B,][B,,B,] [B,,B,][B,,A,][B,,F,] | [E,G,][E,G,][E,B,] [E,G,]2 z | %4
w: ~ ~ ~ ~ ~ ~|~ ~ ~ ~|
 A,A,A, [A,C][A,B,]A, | [E,G,][E,G,][E,B,] [E,G,]2 z | [E,G,][E,A,][E,G,] [E,G,][E,B,][E,G,] | %7
w: ~ ~ ~ ~ ~ ~|~ ~ ~ ~|~ ~ ~ ~ ~ ~|
 [B,,A,][B,,B,][B,,A,] [E,G,]2 z || [E,G,]>[E,G,][E,G,] [E,G,]2 [E,B,] | [E,G,]2 [E,G,] [E,B,]3 | %10
w: Beau- ti- ful gates|a- jar for me, *||
 [E,B,]>[E,E][E,E] [E,E]2 [A,E] | [G,E]2 [E,B,] [B,,B,]3 | [E,G,]>[E,G,][E,G,] [E,G,]2 [B,,B,] | %13
w: |||
 [E,B,]2 [G,,B,] (A, C2) | [B,,G,]>[B,,A,][B,,G,] [B,,G,]2 [B,,B,] | [B,,A,]2 [B,,B,] [E,G,]3 |] %16
w: |||
V:4
 x6 | x6 | x6 | x6 | A,A,A, x A, x | x6 | x6 | x6 || x6 | x6 | x6 | x6 | x6 | x3 A,,3 | x6 | x6 |] %16
w: ||||~ ~ ~ ~||||||||||||

